X: 38773
T: Stuart's Rant, The
R: reel
M: 4/4
K: Amixolydian
|:e|c/d/e f/g/a e2 dc|dBgB aBgB|c/d/e f/g/a e2 dc|dBgB aAA:|
|:e|cA A/A/A cAcA|BE E/E/E BEBe|cA A/A/A cAcA|BE E/E/E aAA:|

